X:1
T:Christi Mutter, 8.8.7
T:Christi Mutter, 8.8.7
T:David Gregor Corner’s Gesangbuch, 1625
T:Public Domain Courtesy of the Cyber Hymnal™
C:David Gregor Corner’s Gesangbuch, 1625
Z:Public Domain
Z:Courtesy of the Cyber Hymnal™
%%score ( 1 2 ) ( 3 4 )
L:1/8
Q:1/4=125
M:3/2
K:Bb
V:1 treble 
V:2 treble 
V:3 bass 
V:4 bass 
V:1
 [GB]4 [GB]2 | [Ac]4 [GB]2 | [FA]4 [EG]2 | B6 | [EG]6 | [FB]4 [FA]2 | [DG]4 [EG]2 | A4 [EG]2 | F6 | %9
 [DF]6 | [CE]4 [DF]2 | [EG]4 [EA]2 | F4 [DF]2 | [B,E]6 |] %14
V:2
 x6 | x6 | x6 | (E4 D2) | x6 | x6 | x6 | C2 D2 x2 | C2 F2 E2 | x6 | x6 | x6 | (E2 DC) x2 | x6 |] %14
V:3
 [E,B,]4 [E,E]2 | [A,E]4 [E,E]2 | [F,C]4 [C,C]2 | (F,4 B,2) | [E,B,]6 | [D,B,]4 [F,C]2 | %6
 [G,=B,]4 [C,C]2 | [F,A,]4 [E,B,]2 | [F,A,]6 | [B,,B,]6 | (E,2 G,2) [B,,B,]2 | B,4 [C,A,]2 | %12
 [B,,B,]4 [B,,B,]2 | [E,G,]6 |] %14
V:4
 x6 | x6 | x6 | B,,6 | x6 | x6 | x6 | x6 | x6 | x6 | C,4 x2 | (E,2 D,2) x2 | x6 | x6 |] %14

